svg/fluentui-system-icons/ic_fluent_document_arrow_left_28_regular.svg

<svg width="28" height="28" viewBox="0 0 28 28" fill="none" xmlns="http://www.w3.org/2000/svg">
<path d="M22.45 23.6C22.45 24.097 22.047 24.5 21.55 24.5H13.8457C13.4964 25.053 13.0768 25.5572 12.5995 26H21.55C22.876 26 23.95 24.926 23.95 23.6V11.395C23.95 10.758 23.697 10.148 23.247 9.698L16.253 2.704C16.201 2.65197 16.1432 2.60789 16.0858 2.56406C16.0671 2.54977 16.0484 2.53551 16.03 2.521C15.734 2.288 15.394 2.121 15.026 2.047C14.872 2.016 14.715 2 14.555 2H6.4C5.075 2 4 3.075 4 4.401V13.8655C4.47237 13.6158 4.97463 13.415 5.5 13.27V4.401C5.5 3.904 5.904 3.5 6.4 3.5H13.95V10C13.95 11.105 14.846 12 15.95 12L22.45 11.999V23.6ZM15.45 4.023L21.928 10.499L15.95 10.5C15.77 10.5 15.651 10.409 15.596 10.354C15.542 10.299 15.45 10.18 15.45 10V4.023ZM14 20.5004C14 24.0903 11.0899 27.0004 7.5 27.0004C3.91015 27.0004 1 24.0903 1 20.5004C1 16.9106 3.91015 14.0004 7.5 14.0004C11.0899 14.0004 14 16.9106 14 20.5004ZM11.5 21.0004C11.7761 21.0004 12 20.7766 12 20.5004C12 20.2243 11.7761 20.0004 11.5 20.0004H4.70711L6.85355 17.854C7.04882 17.6587 7.04882 17.3421 6.85355 17.1469C6.65829 16.9516 6.34171 16.9516 6.14645 17.1469L3.14645 20.1469C3.09851 20.1948 3.06234 20.2501 3.03794 20.309C3.01385 20.3671 3.0004 20.4307 3.00001 20.4974L3 20.5004L3.00001 20.5034C3.00077 20.6304 3.04958 20.7571 3.14645 20.854L6.14645 23.854C6.34171 24.0492 6.65829 24.0492 6.85355 23.854C7.04882 23.6587 7.04882 23.3421 6.85355 23.1469L4.70711 21.0004H11.5Z" fill="#212121"/>
</svg>

<svg xmlns="http://www.w3.org/2000/svg" width="28" height="28"><path d="M22.45 23.6a.9.9 0 0 1-.9.9h-7.704A7.538 7.538 0 0 1 12.6 26h8.95a2.4 2.4 0 0 0 2.4-2.4V11.395a2.4 2.4 0 0 0-.703-1.697l-6.994-6.994c-.052-.052-.11-.096-.167-.14l-.056-.043a2.387 2.387 0 0 0-1.004-.474A2.381 2.381 0 0 0 14.555 2H6.4A2.4 2.4 0 0 0 4 4.401v9.465a7.45 7.45 0 0 1 1.5-.596V4.401c0-.497.404-.901.9-.901h7.55V10a2 2 0 0 0 2 2l6.5-.001V23.6Zm-7-19.577 6.478 6.476-5.978.001a.499.499 0 0 1-.5-.5V4.023ZM14 20.5a6.5 6.5 0 1 1-13 0 6.5 6.5 0 0 1 13 0Zm-2.5.5a.5.5 0 1 0 0-1H4.707l2.147-2.146a.5.5 0 1 0-.708-.707l-3 3a.499.499 0 0 0-.146.35v.006a.5.5 0 0 0 .146.351l3 3a.5.5 0 0 0 .708-.707L4.707 21H11.5Z"/></svg>
